thirdparty/rawtherapee/Aruco_Detection.pp3
[Version]
AppVersion=5.8
Version=343

[General]
ColorManagementInputProfile=none
ColorManagementWorkingProfile=none
ColorManagementOutputProfile=none

[Exposure]
Auto=false
ExposureCompensation=0
Clip=0

[ToneCurve]
Enabled=false

[Sharpening]
Enabled=false

[Contrast]
Contrast=0
Microcontrast=0
Clarity=0

[NoiseReduction]
Luma=0
Chroma=0

[WhiteBalance]
Setting=Custom
Temperature=5500
Green=1.0
Auto=false

[Color]
Saturation=0
Vibrance=0

[Defringing]
Enabled=false

[HLRecovery]
Enabled=false

[CA]
Enabled=false

[LensProfile]
UseDistortion=false
UseVignette=false
UseCA=false
UseLCP=false

